assets/awsdatabases/original.svg

<svg height="74" viewBox="0 0 74 74" width="74" xmlns="http://www.w3.org/2000/svg"><g fill="none" fill-rule="evenodd"><path d="m5 5h64v64h-64z" fill="#c925d1"/><path d="m1 1h72v72h-72z" stroke="#879196" stroke-width="2"/><path d="m15 21.764c-7.44 0-13-2.345-13-4.441v-7.546c2.768 2.034 7.991 3.105 13 3.105s10.232-1.071 13-3.105v7.546c0 2.096-5.56 4.441-13 4.441m0 10.691c-7.44 0-13-2.345-13-4.441v-7.355c2.768 2.034 7.991 3.105 13 3.105s10.232-1.071 13-3.105v7.355c0 2.096-5.56 4.441-13 4.441m0 9.545c-7.44 0-13-2.344-13-4.441v-6.209c2.768 2.034 7.991 3.105 13 3.105s10.232-1.071 13-3.105v6.209c0 2.097-5.56 4.441-13 4.441m0-40c7.44 0 13 2.345 13 4.441s-5.56 4.441-13 4.441-13-2.345-13-4.441 5.56-4.441 13-4.441m0-2c-7.271 0-15 2.258-15 6.441v31.118c0 4.184 7.729 6.441 15 6.441s15-2.257 15-6.441v-31.118c0-4.183-7.729-6.441-15-6.441" fill="#fff" transform="translate(22 15)"/></g></svg>

<svg xmlns="http://www.w3.org/2000/svg" width="74" height="74" viewBox="0 0 74 74"><title>Icon-Architecture-Category/48/Database_48</title><g id="Icon-Architecture-Category/48/Database_48" fill="none" fill-rule="evenodd" stroke="none" stroke-width="1"><path id="Rectangle" fill="#c925d1" d="M5 5h64v64H5z"/><path id="#879196-Border-Copy-9" stroke="#879196" stroke-width="2" d="M1 1h72v72H1z"/><g id="Icon-Category/48/Database_48" fill="#fff" transform="translate(22 15)"><path id="Database_Category-Icon_48_Squid--" d="M15 21.764c-7.44 0-13-2.345-13-4.441V9.777c2.768 2.034 7.991 3.105 13 3.105s10.232-1.071 13-3.105v7.546c0 2.096-5.56 4.441-13 4.441m0 10.691c-7.44 0-13-2.345-13-4.441v-7.355c2.768 2.034 7.991 3.105 13 3.105s10.232-1.071 13-3.105v7.355c0 2.096-5.56 4.441-13 4.441M15 42c-7.44 0-13-2.344-13-4.441V31.35c2.768 2.034 7.991 3.105 13 3.105s10.232-1.071 13-3.105v6.209C28 39.656 22.44 42 15 42m0-40c7.44 0 13 2.345 13 4.441s-5.56 4.441-13 4.441S2 8.537 2 6.441 7.56 2 15 2m0-2C7.729 0 0 2.258 0 6.441v31.118C0 41.743 7.729 44 15 44s15-2.257 15-6.441V6.441C30 2.258 22.271 0 15 0"/></g></g></svg>
